; generated by Slic3r 1.1.6 on 2014-08-03 at 09:50:27

; perimeters extrusion width = 0.40mm
; infill extrusion width = 0.42mm
; solid infill extrusion width = 0.42mm
; top infill extrusion width = 0.42mm

G21 ; set units to millimeters
M107
M104 S210 ; set temperature
G28 ; home all axes
G1 Z5 F5000 ; lift nozzle
M109 S210 ; wait for temperature to be reached
G90 ; use absolute coordinates
G92 E0
M82 ; use absolute distances for extrusion
G1 F1200.000 E-1.00000
G92 E0
G1 Z0.350 F6000.000
G1 X43.560 Y74.747 F6000.000
G1 E1.00000 F1200.000
G1 X55.717 Y67.263 E1.45440 F1080.000
G1 X65.420 Y62.129 E1.80385
G1 X66.619 Y61.607 E1.84547
G1 X70.293 Y60.420 E1.96835
G1 X71.460 Y60.188 E2.00623
G1 X73.127 Y60.023 E2.05954
G1 X84.319 Y60.023 E2.41580
G1 X85.648 Y60.127 E2.45823
G1 X91.582 Y61.069 E2.64948
G1 X92.749 Y61.301 E2.68736
G1 X95.828 Y62.576 E2.79344
G1 X96.818 Y63.237 E2.83132
G1 X99.175 Y65.595 E2.93743
G1 X99.836 Y66.584 E2.97532
G1 X101.111 Y69.663 E3.08139
G1 X101.344 Y70.830 E3.11927
G1 X101.344 Y74.164 E3.22538
G1 X101.111 Y75.331 E3.26326
G1 X99.836 Y78.410 E3.36934
G1 X99.175 Y79.399 E3.40722
G1 X97.559 Y81.201 E3.48425
G1 X81.047 Y94.974 E4.16870
G1 X80.057 Y95.636 E4.20658
G1 X76.978 Y96.911 E4.31266
G1 X75.811 Y97.143 E4.35054
G1 X74.144 Y97.307 E4.40385
G1 X52.777 Y97.307 E5.08399
G1 X51.110 Y97.143 E5.13730
G1 X50.769 Y97.075 E5.14835
G1 X49.557 Y96.825 E5.18774
G1 X45.996 Y95.944 E5.30452
G1 X43.303 Y94.754 E5.39825
G1 X42.313 Y94.093 E5.43613
G1 X39.956 Y91.736 E5.54224
G1 X39.295 Y90.746 E5.58012
G1 X38.019 Y87.668 E5.68620
G1 X37.787 Y86.500 E5.72408
G1 X37.787 Y83.167 E5.83019
G1 X38.019 Y82.000 E5.86807
G1 X39.295 Y78.921 E5.97415
G1 X39.956 Y77.931 E6.01203
G1 X42.313 Y75.574 E6.11815
G1 X43.510 Y74.780 E6.16386
G1 X43.894 Y75.288 F6000.000
G1 X56.014 Y67.825 E6.61691 F1080.000
G1 X66.828 Y62.208 E7.00478
G1 X70.417 Y61.043 E7.12489
G1 X71.584 Y60.811 E7.16278
G1 X73.127 Y60.659 E7.21212
G1 X85.549 Y60.755 E7.60754
G1 X91.458 Y61.692 E7.79798
G1 X92.625 Y61.924 E7.83587
G1 X95.475 Y63.105 E7.93405
G1 X96.465 Y63.766 E7.97193
G1 X98.647 Y65.948 E8.07015
G1 X99.308 Y66.937 E8.10803
G1 X100.488 Y69.787 E8.20621
G1 X100.720 Y70.954 E8.24409
G1 X100.720 Y74.040 E8.34231
G1 X100.488 Y75.207 E8.38019
G1 X99.308 Y78.057 E8.47837
G1 X98.647 Y79.046 E8.51625
G1 X97.151 Y80.714 E8.58755
G1 X80.693 Y94.446 E9.26981
G1 X79.704 Y95.107 E9.30769
G1 X76.854 Y96.287 E9.40588
G1 X75.687 Y96.520 E9.44376
G1 X74.144 Y96.672 E9.49310
G1 X52.777 Y96.672 E10.17324
G1 X51.234 Y96.520 E10.22259
G1 X50.893 Y96.452 E10.23364
G1 X49.710 Y96.208 E10.27209
G1 X46.149 Y95.327 E10.38887
G1 X43.656 Y94.226 E10.47562
G1 X42.666 Y93.565 E10.51350
G1 X40.484 Y91.383 E10.61172
G1 X39.823 Y90.393 E10.64960
G1 X38.643 Y87.544 E10.74779
G1 X38.411 Y86.376 E10.78567
G1 X38.411 Y83.291 E10.88388
G1 X38.643 Y82.124 E10.92176
G1 X39.823 Y79.274 E11.01995
G1 X40.484 Y78.284 E11.05783
G1 X42.666 Y76.102 E11.15605
G1 X43.844 Y75.321 E11.20103
G1 X44.228 Y75.829 F6000.000
G1 X56.311 Y68.387 E11.65275 F1080.000
G1 X67.036 Y62.809 E12.03753
G1 X70.541 Y61.667 E12.15487
G1 X71.708 Y61.434 E12.19275
G1 X73.127 Y61.295 E12.23813
G1 X85.450 Y61.383 E12.63040
G1 X91.334 Y62.316 E12.82003
G1 X92.501 Y62.548 E12.85791
G1 X95.122 Y63.633 E12.94820
G1 X96.112 Y64.294 E12.98608
G1 X98.118 Y66.301 E13.07641
G1 X98.779 Y67.290 E13.11429
G1 X99.865 Y69.911 E13.20458
G1 X100.097 Y71.078 E13.24246
G1 X100.097 Y73.916 E13.33278
G1 X99.865 Y75.083 E13.37066
G1 X98.779 Y77.704 E13.46095
G1 X98.118 Y78.693 E13.49883
G1 X96.743 Y80.227 E13.56440
G1 X80.340 Y93.917 E14.24447
G1 X79.351 Y94.579 E14.28235
G1 X76.730 Y95.664 E14.37264
G1 X75.563 Y95.896 E14.41052
G1 X74.144 Y96.036 E14.45590
G1 X52.777 Y96.036 E15.13604
G1 X51.358 Y95.896 E15.18141
G1 X51.017 Y95.829 E15.19246
G1 X49.863 Y95.591 E15.22999
G1 X46.302 Y94.710 E15.34676
G1 X44.009 Y93.697 E15.42654
G1 X43.019 Y93.036 E15.46442
G1 X41.013 Y91.030 E15.55474
G1 X40.352 Y90.040 E15.59263
G1 X39.266 Y87.420 E15.68292
G1 X39.034 Y86.252 E15.72080
G1 X39.034 Y83.415 E15.81112
G1 X39.266 Y82.248 E15.84900
G1 X40.352 Y79.627 E15.93929
G1 X41.013 Y78.637 E15.97717
G1 X43.019 Y76.631 E16.06749
G1 X44.178 Y75.862 E16.11176
G1 X44.562 Y76.370 F6000.000
G1 X56.608 Y68.949 E16.56212 F1080.000
G1 X67.244 Y63.409 E16.94382
G1 X70.665 Y62.290 E17.05839
G1 X71.832 Y62.058 E17.09627
G1 X73.127 Y61.930 E17.13768
G1 X85.351 Y62.011 E17.52681
G1 X91.210 Y62.939 E17.71562
G1 X92.377 Y63.171 E17.75350
G1 X94.769 Y64.162 E17.83590
G1 X95.758 Y64.823 E17.87378
G1 X97.590 Y66.654 E17.95621
G1 X98.251 Y67.644 E17.99409
G1 X99.241 Y70.035 E18.07649
G1 X99.473 Y71.202 E18.11437
G1 X99.473 Y73.792 E18.19679
G1 X99.241 Y74.959 E18.23467
G1 X98.251 Y77.351 E18.31707
G1 X97.590 Y78.340 E18.35495
G1 X96.334 Y79.740 E18.41479
G1 X79.987 Y93.389 E19.09267
G1 X78.998 Y94.050 E19.13054
G1 X76.606 Y95.041 E19.21295
G1 X75.439 Y95.273 E19.25083
G1 X74.144 Y95.400 E19.29224
G1 X52.777 Y95.400 E19.97238
G1 X51.482 Y95.273 E20.01379
G1 X50.016 Y94.974 E20.06142
G1 X46.454 Y94.093 E20.17820
G1 X44.362 Y93.169 E20.25100
G1 X43.372 Y92.508 E20.28888
G1 X41.541 Y90.677 E20.37131
G1 X40.880 Y89.687 E20.40919
G1 X39.890 Y87.296 E20.49159
G1 X39.657 Y86.128 E20.52947
G1 X39.657 Y83.539 E20.61189
G1 X39.890 Y82.372 E20.64978
G1 X40.880 Y79.980 E20.73217
G1 X41.541 Y78.991 E20.77005
G1 X43.372 Y77.159 E20.85248
G1 X44.512 Y76.403 E20.89602
G1 F1200.000 E19.89602
G92 E0
G1 X75.175 Y88.203 F6000.000
G1 E1.00000 F1200.000
G1 X74.144 Y88.408 E1.03345 F378.000
G1 X73.114 Y88.203 E1.06690
G1 X72.240 Y87.619 E1.10034
G1 X71.656 Y86.745 E1.13379
G1 X71.451 Y85.715 E1.16724
G1 X71.656 Y84.684 E1.20069
G1 X72.240 Y83.810 E1.23414
G1 X73.114 Y83.227 E1.26758
G1 X74.144 Y83.022 E1.30103
G1 X75.175 Y83.227 E1.33448
G1 X76.048 Y83.810 E1.36793
G1 X76.632 Y84.684 E1.40138
G1 X76.837 Y85.715 E1.43482
G1 X76.632 Y86.745 E1.46827
G1 X76.048 Y87.619 E1.50172
G1 X75.225 Y88.170 E1.53326
G1 X74.874 Y87.939 F6000.000
G1 X74.300 Y87.729 F6000.000
G1 X74.300 Y87.791 E1.53523 F540.000
G1 X73.362 Y87.604 E1.56568
G1 X72.698 Y87.161 E1.59108
G1 X72.255 Y86.497 E1.61648
G1 X72.099 Y85.715 E1.64188
G1 X72.255 Y84.932 E1.66728
G1 X72.698 Y84.269 E1.69268
G1 X73.362 Y83.825 E1.71808
G1 X74.144 Y83.670 E1.74348
G1 X74.927 Y83.825 E1.76888
G1 X75.590 Y84.269 E1.79428
G1 X76.034 Y84.932 E1.81967
G1 X76.189 Y85.715 E1.84507
G1 X76.034 Y86.497 E1.87047
G1 X75.590 Y87.161 E1.89587
G1 X74.983 Y87.566 E1.91911
G1 X74.983 Y87.593 E1.91995
G1 X74.359 Y87.717 E1.94022
G1 X74.144 Y87.112 F6000.000
G1 X73.610 Y87.005 E1.95757 F540.000
G1 X73.156 Y86.703 E1.97492
G1 X72.853 Y86.249 E1.99227
G1 X72.747 Y85.715 E2.00962
G1 X72.853 Y85.180 E2.02697
G1 X73.156 Y84.727 E2.04432
G1 X73.610 Y84.424 E2.06167
G1 X74.144 Y84.318 E2.07902
G1 X74.679 Y84.424 E2.09637
G1 X75.132 Y84.727 E2.11372
G1 X75.435 Y85.180 E2.13107
G1 X75.541 Y85.715 E2.14842
G1 X75.435 Y86.249 E2.16578
G1 X75.132 Y86.703 E2.18312
G1 X74.679 Y87.005 E2.20047
G1 X74.203 Y87.100 E2.21592
G1 X73.561 Y86.443 F6000.000
G1 X73.416 Y86.298 E2.22244 F864.000
G1 X73.489 Y85.059 E2.26194
G1 X74.800 Y86.370 E2.32096
G1 X74.872 Y85.132 E2.36046
G1 X74.727 Y84.987 E2.36699
G1 F1200.000 E1.36699
G92 E0
G1 X72.617 Y74.208 F6000.000
G1 E1.00000 F1200.000
G1 X72.487 Y74.401 E1.00742 F378.000
G1 X72.191 Y74.599 E1.01877
G1 X72.054 Y75.290 E1.04118
G1 X71.470 Y76.164 E1.07463
G1 X70.596 Y76.748 E1.10807
G1 X69.565 Y76.953 E1.14152
G1 X68.548 Y76.750 E1.17454
G1 X67.530 Y76.953 E1.20757
G1 X66.500 Y76.748 E1.24101
G1 X65.626 Y76.164 E1.27446
G1 X65.042 Y75.290 E1.30791
G1 X64.837 Y74.259 E1.34136
G1 X65.042 Y73.229 E1.37480
G1 X65.626 Y72.355 E1.40825
G1 X66.500 Y71.771 E1.44170
G1 X67.530 Y71.566 E1.47515
G1 X67.970 Y71.654 E1.48941
G1 X68.679 Y70.593 E1.53002
G1 X69.552 Y70.009 E1.56347
G1 X70.583 Y69.804 E1.59692
G1 X71.093 Y69.905 E1.61346
G1 X71.222 Y69.712 E1.62089
G1 X72.096 Y69.128 E1.65433
G1 X73.127 Y68.923 E1.68778
G1 X74.157 Y69.128 E1.72123
G1 X74.653 Y69.459 E1.74020
G1 X75.149 Y69.128 E1.75918
G1 X76.179 Y68.923 E1.79262
G1 X77.210 Y69.128 E1.82607
G1 X78.083 Y69.712 E1.85952
G1 X78.667 Y70.585 E1.89297
G1 X78.872 Y71.616 E1.92642
G1 X78.667 Y72.647 E1.95986
G1 X78.083 Y73.520 E1.99331
G1 X77.210 Y74.104 E2.02676
G1 X76.179 Y74.309 E2.06021
G1 X75.149 Y74.104 E2.09366
G1 X74.653 Y73.773 E2.11263
G1 X74.157 Y74.104 E2.13160
G1 X73.127 Y74.309 E2.16505
G1 X72.676 Y74.219 E2.17969
G1 X72.408 Y74.104 F6000.000
G1 X72.324 Y73.501 F6000.000
G1 X72.029 Y73.943 E2.19660 F540.000
G1 X71.619 Y74.217 E2.21230
G1 X71.455 Y75.042 E2.23907
G1 X71.011 Y75.706 E2.26447
G1 X70.348 Y76.149 E2.28987
G1 X69.565 Y76.304 E2.31527
G1 X68.548 Y76.102 E2.34829
G1 X67.530 Y76.304 E2.38131
G1 X66.748 Y76.149 E2.40671
G1 X66.084 Y75.706 E2.43211
G1 X65.641 Y75.042 E2.45751
G1 X65.485 Y74.259 E2.48291
G1 X65.641 Y73.477 E2.50831
G1 X66.084 Y72.813 E2.53371
G1 X66.748 Y72.370 E2.55911
G1 X67.530 Y72.214 E2.58451
G1 X68.262 Y72.360 E2.60826
G1 X69.137 Y71.051 E2.65837
G1 X69.800 Y70.608 E2.68376
G1 X70.583 Y70.452 E2.70916
G1 X71.385 Y70.612 E2.73521
G1 X71.681 Y70.170 E2.75212
G1 X72.344 Y69.727 E2.77752
G1 X73.127 Y69.571 E2.80292
G1 X73.909 Y69.727 E2.82832
G1 X74.653 Y70.223 E2.85679
G1 X75.397 Y69.727 E2.88525
G1 X76.179 Y69.571 E2.91065
G1 X76.962 Y69.727 E2.93605
G1 X77.625 Y70.170 E2.96145
G1 X78.069 Y70.833 E2.98685
G1 X78.224 Y71.616 E3.01225
G1 X78.069 Y72.399 E3.03765
G1 X77.625 Y73.062 E3.06305
G1 X76.962 Y73.505 E3.08845
G1 X76.179 Y73.661 E3.11385
G1 X75.397 Y73.505 E3.13925
G1 X74.653 Y73.008 E3.16771
G1 X73.909 Y73.505 E3.19618
G1 X73.127 Y73.661 E3.22158
G1 X72.383 Y73.513 E3.24571
G1 X72.032 Y72.795 F6000.000
G1 X71.571 Y73.485 E3.27212 F540.000
G1 X71.047 Y73.835 E3.29218
G1 X70.856 Y74.794 E3.32330
G1 X70.553 Y75.247 E3.34065
G1 X70.100 Y75.550 E3.35800
G1 X69.565 Y75.656 E3.37535
G1 X68.548 Y75.454 E3.40838
G1 X67.530 Y75.656 E3.44140
G1 X66.996 Y75.550 E3.45875
G1 X66.543 Y75.247 E3.47610
G1 X66.240 Y74.794 E3.49345
G1 X66.133 Y74.259 E3.51080
G1 X66.240 Y73.725 E3.52815
G1 X66.543 Y73.272 E3.54550
G1 X66.996 Y72.969 E3.56285
G1 X67.530 Y72.862 E3.58020
G1 X68.555 Y73.066 E3.61344
G1 X69.595 Y71.509 E3.67305
G1 X70.048 Y71.206 E3.69040
G1 X70.583 Y71.100 E3.70775
G1 X71.678 Y71.318 E3.74328
G1 X72.139 Y70.628 E3.76969
G1 X72.592 Y70.325 E3.78704
G1 X73.127 Y70.219 E3.80439
G1 X73.661 Y70.325 E3.82175
G1 X74.653 Y70.988 E3.85971
G1 X75.645 Y70.325 E3.89767
G1 X76.179 Y70.219 E3.91502
G1 X76.714 Y70.325 E3.93237
G1 X77.167 Y70.628 E3.94972
G1 X77.470 Y71.081 E3.96707
G1 X77.576 Y71.616 E3.98442
G1 X77.470 Y72.151 E4.00177
G1 X77.167 Y72.604 E4.01912
G1 X76.714 Y72.907 E4.03647
G1 X76.179 Y73.013 E4.05382
G1 X75.645 Y72.907 E4.07117
G1 X74.653 Y72.244 E4.10913
G1 X73.661 Y72.907 E4.14709
G1 X73.127 Y73.013 E4.16444
G1 X72.091 Y72.807 E4.19807
G1 X75.112 Y72.021 F6000.000
G1 X74.522 Y71.430 E4.22465 F864.000
G1 X74.188 Y72.024 E4.24633
G1 X72.881 Y70.717 E4.30517
G1 X72.347 Y71.110 E4.32629
G1 X73.632 Y72.396 E4.38416
G1 X72.809 Y72.500 E4.41057
G1 X71.975 Y71.667 E4.44810
G1 X71.772 Y72.391 E4.47205
G1 X71.017 Y71.636 E4.50603
G1 X70.133 Y71.680 E4.53419
G1 X71.400 Y72.947 E4.59122
G1 X70.917 Y73.391 E4.61212
G1 X69.688 Y72.163 E4.66743
G1 X69.317 Y72.719 E4.68872
G1 X70.570 Y73.972 E4.74513
G1 X70.381 Y74.711 E4.76940
G1 X68.945 Y73.275 E4.83404
G1 X68.185 Y73.442 E4.85883
G1 X69.886 Y75.143 E4.93541
G1 X68.887 Y75.072 E4.96729
G1 X67.194 Y73.379 E5.04351
G1 X66.707 Y73.819 E5.06442
G1 X68.001 Y75.113 E5.12267
G1 X66.947 Y74.988 E5.15644
G1 X66.802 Y74.843 E5.16297
G1 X76.516 Y72.496 F6000.000
G1 X75.183 Y71.164 E5.22296 F864.000
G1 X75.739 Y70.792 E5.24425
G1 X77.003 Y72.056 E5.30114
G1 X76.907 Y71.033 E5.33385
G1 X76.762 Y70.888 E5.34037
G1 F1200.000 E4.34037
G92 E0
G1 X81.626 Y71.616 F6000.000
G1 E1.00000 F1200.000
G1 X81.831 Y70.585 E1.03345 F378.000
G1 X82.415 Y69.712 E1.06690
G1 X83.288 Y69.128 E1.10034
G1 X84.319 Y68.923 E1.13379
G1 X85.350 Y69.128 E1.16724
G1 X86.223 Y69.712 E1.20069
G1 X86.807 Y70.585 E1.23414
G1 X87.123 Y72.174 E1.28569
G1 X86.223 Y73.520 E1.33724
G1 X85.350 Y74.104 E1.37068
G1 X84.319 Y74.309 E1.40413
G1 X83.288 Y74.104 E1.43758
G1 X82.415 Y73.520 E1.47103
G1 X81.831 Y72.647 E1.50447
G1 X81.638 Y71.675 E1.53601
G1 X81.985 Y71.439 F6000.000
G1 X82.274 Y71.616 F6000.000
G1 X82.430 Y70.833 E1.56141 F540.000
G1 X82.873 Y70.170 E1.58681
G1 X83.536 Y69.727 E1.61221
G1 X84.319 Y69.571 E1.63761
G1 X85.102 Y69.727 E1.66301
G1 X85.765 Y70.170 E1.68841
G1 X86.209 Y70.833 E1.71381
G1 X86.448 Y72.040 E1.75296
G1 X85.765 Y73.062 E1.79210
G1 X85.102 Y73.505 E1.81750
G1 X84.319 Y73.661 E1.84290
G1 X83.536 Y73.505 E1.86830
G1 X82.873 Y73.062 E1.89369
G1 X82.430 Y72.399 E1.91909
G1 X82.286 Y71.675 E1.94258
G1 X82.922 Y71.616 F6000.000
G1 X83.028 Y71.081 E1.95993 F540.000
G1 X83.331 Y70.628 E1.97728
G1 X83.784 Y70.325 E1.99463
G1 X84.319 Y70.219 E2.01198
G1 X84.854 Y70.325 E2.02933
G1 X85.307 Y70.628 E2.04668
G1 X85.610 Y71.081 E2.06403
G1 X85.774 Y71.905 E2.09078
G1 X85.307 Y72.604 E2.11751
G1 X84.854 Y72.907 E2.13486
G1 X84.319 Y73.013 E2.15222
G1 X83.785 Y72.907 E2.16957
G1 X83.331 Y72.604 E2.18691
G1 X83.028 Y72.150 E2.20427
G1 X82.934 Y71.675 E2.21971
G1 X87.111 Y71.939 F6000.000
G1 X88.011 Y70.593 E2.27125 F378.000
G1 X88.885 Y70.009 E2.30470
G1 X89.915 Y69.804 E2.33815
G1 X90.946 Y70.009 E2.37160
G1 X91.820 Y70.593 E2.40504
G1 X92.404 Y71.466 E2.43849
G1 X92.609 Y72.497 E2.47194
G1 X92.404 Y73.528 E2.50539
G1 X91.820 Y74.401 E2.53884
G1 X90.946 Y74.985 E2.57228
G1 X89.915 Y75.190 E2.60573
G1 X88.885 Y74.985 E2.63918
G1 X88.011 Y74.401 E2.67263
G1 X87.427 Y73.528 E2.70608
G1 X87.123 Y71.998 E2.75572
G1 X87.504 Y71.861 F6000.000
G1 X87.786 Y72.073 F6000.000
G1 X88.469 Y71.051 E2.79486 F540.000
G1 X89.133 Y70.608 E2.82026
G1 X89.915 Y70.452 E2.84566
G1 X90.698 Y70.608 E2.87106
G1 X91.362 Y71.051 E2.89646
G1 X91.805 Y71.714 E2.92186
G1 X91.960 Y72.497 E2.94726
G1 X91.805 Y73.280 E2.97266
G1 X91.362 Y73.943 E2.99806
G1 X90.698 Y74.386 E3.02346
G1 X89.915 Y74.542 E3.04886
G1 X89.133 Y74.386 E3.07426
G1 X88.469 Y73.943 E3.09966
G1 X88.026 Y73.280 E3.12505
G1 X87.798 Y72.132 E3.16229
G1 X88.461 Y72.208 F6000.000
G1 X88.928 Y71.509 E3.18903 F540.000
G1 X89.381 Y71.206 E3.20638
G1 X89.915 Y71.100 E3.22373
G1 X90.450 Y71.206 E3.24108
G1 X90.903 Y71.509 E3.25843
G1 X91.206 Y71.962 E3.27578
G1 X91.312 Y72.497 E3.29313
G1 X91.206 Y73.032 E3.31048
G1 X90.903 Y73.485 E3.32783
G1 X90.450 Y73.788 E3.34518
G1 X89.915 Y73.894 E3.36253
G1 X89.381 Y73.788 E3.37989
G1 X88.928 Y73.485 E3.39724
G1 X88.625 Y73.032 E3.41459
G1 X88.473 Y72.267 E3.43942
G1 X84.902 Y70.888 F6000.000
G1 X85.047 Y71.033 E3.44595 F864.000
G1 X84.975 Y72.272 E3.48544
G1 X83.664 Y70.960 E3.54447
G1 X83.591 Y72.199 E3.58396
G1 X83.736 Y72.344 E3.59049
G1 X89.332 Y73.225 F6000.000
G1 X89.187 Y73.080 E3.59701 F864.000
G1 X89.260 Y71.841 E3.63651
G1 X90.571 Y73.153 E3.69554
G1 X90.644 Y71.914 E3.73504
G1 X90.499 Y71.769 E3.74156
G1 F1200.000 E2.74156
G92 E0
G1 X54.869 Y84.092 F6000.000
G1 E1.00000 F1200.000
G1 X55.265 Y84.684 E1.02268 F378.000
G1 X55.470 Y85.715 E1.05612
G1 X55.265 Y86.745 E1.08957
G1 X54.681 Y87.619 E1.12302
G1 X53.807 Y88.203 E1.15647
G1 X52.777 Y88.408 E1.18992
G1 X51.746 Y88.203 E1.22337
G1 X50.872 Y87.619 E1.25681
G1 X50.542 Y87.124 E1.27576
G1 X50.246 Y87.322 E1.28707
G1 X49.215 Y87.527 E1.32052
G1 X48.185 Y87.322 E1.35397
G1 X47.311 Y86.738 E1.38742
G1 X46.727 Y85.864 E1.42086
G1 X46.522 Y84.834 E1.45431
G1 X46.727 Y83.803 E1.48776
G1 X47.311 Y82.929 E1.52121
G1 X48.185 Y82.345 E1.55466
G1 X49.215 Y82.140 E1.58810
G1 X50.246 Y82.345 E1.62155
G1 X51.120 Y82.929 E1.65500
G1 X51.450 Y83.424 E1.67395
G1 X51.746 Y83.227 E1.68526
G1 X53.228 Y82.932 E1.73336
G1 X52.832 Y82.340 E1.75604
G1 X52.627 Y81.309 E1.78948
G1 X52.832 Y80.278 E1.82293
G1 X53.416 Y79.405 E1.85638
G1 X54.290 Y78.821 E1.88983
G1 X55.320 Y78.616 E1.92328
G1 X56.351 Y78.821 E1.95672
G1 X57.225 Y79.405 E1.99017
G1 X57.809 Y80.278 E2.02362
G1 X58.014 Y81.309 E2.05707
