; generated by Slic3r 1.1.6 on 2014-08-02 at 20:54:11

; perimeters extrusion width = 0.40mm
; infill extrusion width = 0.42mm
; solid infill extrusion width = 0.42mm
; top infill extrusion width = 0.42mm

G21 ; set units to millimeters
M107
M104 S210 ; set temperature
G28 ; home all axes
G1 Z5 F5000 ; lift nozzle
M109 S210 ; wait for temperature to be reached
G90 ; use absolute coordinates
G92 E0
M82 ; use absolute distances for extrusion
G1 F1200.000 E-1.00000
G92 E0
G1 Z0.350 F6000.000
G1 X45.888 Y57.219 F6000.000
G1 E1.00000 F1200.000
G1 X49.027 Y54.924 E1.12377 F1080.000
G1 X66.642 Y47.443 E1.73295
G1 X69.169 Y46.802 E1.81592
G1 X72.503 Y47.144 E1.92262
G1 X73.471 Y47.486 E1.95530
G1 X91.038 Y54.861 E2.56174
G1 X93.259 Y56.225 E2.64471
G1 X94.965 Y58.196 E2.72767
G1 X95.608 Y59.433 E2.77204
G1 X102.814 Y76.607 E3.36490
G1 X103.369 Y78.544 E3.42903
G1 X103.393 Y78.691 E3.43377
G1 X103.395 Y81.414 E3.52043
G1 X103.240 Y82.196 E3.54582
G1 X102.792 Y83.551 E3.59124
G1 X95.602 Y100.418 E4.17488
G1 X94.226 Y102.632 E4.25785
G1 X91.138 Y104.908 E4.37997
G1 X73.522 Y112.534 E4.99096
G1 X71.000 Y113.192 E5.07393
G1 X68.992 Y113.161 E5.13785
G1 X68.845 Y113.141 E5.14257
G1 X66.661 Y112.545 E5.21465
G1 X49.339 Y105.236 E5.81309
G1 X48.158 Y104.626 E5.85539
G1 X47.982 Y104.517 E5.86198
G1 X46.003 Y102.821 E5.94495
G1 X44.651 Y100.665 E6.02594
G1 X37.167 Y83.468 E6.62293
G1 X36.504 Y80.948 E6.70589
G1 X36.925 Y77.272 E6.82366
G1 X37.187 Y76.581 E6.84718
G1 X44.510 Y59.432 E7.44073
G1 X45.856 Y57.270 E7.52179
G1 X46.433 Y57.561 F6000.000
G1 X49.275 Y55.509 E7.63338 F1080.000
G1 X66.891 Y48.028 E8.24256
G1 X69.324 Y47.426 E8.32236
G1 X72.316 Y47.751 E8.41814
G1 X73.225 Y48.072 E8.44884
G1 X90.792 Y55.447 E9.05528
G1 X92.920 Y56.772 E9.13508
G1 X95.022 Y59.679 E9.24924
G1 X102.228 Y76.853 E9.84209
G1 X102.742 Y78.646 E9.90146
G1 X102.766 Y78.793 E9.90620
G1 X102.768 Y81.313 E9.98641
G1 X102.622 Y82.048 E10.01025
G1 X102.207 Y83.302 E10.05229
G1 X95.017 Y100.169 E10.63593
G1 X93.681 Y102.290 E10.71573
G1 X90.885 Y104.325 E10.82580
G1 X73.270 Y111.951 E11.43679
G1 X70.840 Y112.569 E11.51659
G1 X69.077 Y112.531 E11.57273
G1 X68.930 Y112.511 E11.57745
G1 X66.908 Y111.960 E11.64417
G1 X48.493 Y104.086 E12.28165
G1 X48.317 Y103.976 E12.28824
G1 X46.423 Y102.334 E12.36804
G1 X45.234 Y100.412 E12.44000
G1 X37.750 Y83.215 E13.03698
G1 X37.127 Y80.786 E13.11678
G1 X37.526 Y77.479 E13.22281
G1 X37.771 Y76.830 E13.24489
G1 X45.095 Y59.682 E13.83844
G1 X46.401 Y57.612 E13.91633
G1 X46.976 Y57.907 F6000.000
G1 X49.524 Y56.095 E14.01587 F1080.000
G1 X67.139 Y48.613 E14.62505
G1 X69.476 Y48.052 E14.70156
G1 X72.128 Y48.358 E14.78653
G1 X72.979 Y48.658 E14.81525
G1 X90.546 Y56.033 E15.42169
G1 X92.577 Y57.317 E15.49819
G1 X94.436 Y59.924 E15.60010
G1 X101.642 Y77.099 E16.19295
G1 X102.114 Y78.748 E16.24754
G1 X102.138 Y78.895 E16.25228
G1 X102.140 Y81.212 E16.32605
G1 X102.004 Y81.899 E16.34834
G1 X101.622 Y83.052 E16.38700
G1 X94.433 Y99.920 E16.97064
G1 X93.138 Y101.945 E17.04714
G1 X90.632 Y103.741 E17.14528
G1 X73.017 Y111.367 E17.75627
G1 X70.684 Y111.945 E17.83277
G1 X69.161 Y111.901 E17.88126
G1 X69.014 Y111.881 E17.88598
G1 X67.155 Y111.374 E17.94733
G1 X48.828 Y103.545 E18.58167
G1 X48.652 Y103.436 E18.58827
G1 X46.847 Y101.849 E18.66477
G1 X45.817 Y100.158 E18.72781
G1 X38.333 Y82.961 E19.32479
G1 X37.751 Y80.629 E19.40130
G1 X38.127 Y77.687 E19.49571
G1 X38.356 Y77.080 E19.51636
G1 X45.679 Y59.931 E20.10990
G1 X46.943 Y57.958 E20.18450
G1 X47.517 Y58.258 F6000.000
G1 X49.772 Y56.680 E20.27212 F1080.000
G1 X67.388 Y49.198 E20.88130
G1 X69.624 Y48.680 E20.95436
G1 X71.940 Y48.966 E21.02867
G1 X72.733 Y49.244 E21.05541
G1 X90.300 Y56.620 E21.66185
G1 X92.230 Y57.861 E21.73491
G1 X93.850 Y60.170 E21.82469
G1 X101.056 Y77.345 E22.41755
G1 X101.487 Y78.850 E22.46737
G1 X101.511 Y78.997 E22.47211
G1 X101.512 Y81.112 E22.53942
G1 X101.399 Y81.695 E22.55834
G1 X101.038 Y82.803 E22.59544
G1 X93.848 Y99.671 E23.17908
G1 X92.596 Y101.595 E23.25214
G1 X90.380 Y103.158 E23.33848
G1 X72.765 Y110.784 E23.94947
G1 X70.532 Y111.318 E24.02253
G1 X69.246 Y111.271 E24.06351
G1 X69.099 Y111.251 E24.06822
G1 X67.402 Y110.788 E24.12422
G1 X49.163 Y103.005 E24.75542
G1 X48.987 Y102.896 E24.76201
G1 X47.275 Y101.367 E24.83507
G1 X46.400 Y99.904 E24.88934
G1 X38.916 Y82.707 E25.48632
G1 X38.377 Y80.476 E25.55938
G1 X38.728 Y77.894 E25.64232
G1 X38.940 Y77.330 E25.66152
G1 X46.264 Y60.181 E26.25507
G1 X47.484 Y58.308 E26.32622
G1 F1200.000 E25.32622
G92 E0
G1 X70.155 Y57.591 F6000.000
G1 E1.00000 F1200.000
G1 X70.964 Y57.922 E1.02783 F378.000
G1 X71.502 Y58.108 E1.04593
G1 X71.949 Y58.429 E1.06347
G1 X72.378 Y58.704 E1.07968
G1 X72.990 Y59.068 E1.10236
G1 X74.230 Y59.756 E1.14749
G1 X75.052 Y60.290 E1.17867
G1 X75.359 Y60.529 E1.19107
G1 X75.633 Y60.774 E1.20276
G1 X76.007 Y61.198 E1.22075
G1 X76.285 Y61.653 E1.23771
G1 X76.582 Y62.343 E1.26163
G1 F1200.000 E0.26163
G92 E0
G1 X63.932 Y62.359 F6000.000
G1 E1.00000 F1200.000
G1 X64.254 Y62.480 E1.01095 F378.000
G1 X64.130 Y62.883 F6000.000
G1 X63.763 Y62.175 E1.03634 F378.000
G1 X63.930 Y61.840 E1.04826
G1 X64.190 Y61.453 E1.06308
G1 X64.520 Y61.068 E1.07922
G1 X64.910 Y60.690 E1.09652
G1 X65.239 Y60.407 E1.11033
G1 X65.913 Y59.911 E1.13698
G1 X67.736 Y58.723 E1.20623
G1 X68.483 Y58.199 E1.23526
G1 X69.171 Y57.947 E1.25861
G1 X69.959 Y57.599 E1.28602
G1 F1200.000 E0.28602
G92 E0
G1 X85.844 Y63.504 F6000.000
G1 E1.00000 F1200.000
G1 X84.900 Y63.376 E1.03033 F378.000
G1 X84.214 Y63.256 E1.05251
G1 X83.653 Y63.135 E1.07076
G1 X81.677 Y62.639 E1.13563
G1 X80.932 Y62.482 E1.15983
G1 X80.365 Y62.392 E1.17814
G1 X79.820 Y62.333 E1.19558
G1 X79.249 Y62.322 E1.21375
G1 X78.849 Y62.359 E1.22654
G1 X78.459 Y62.444 E1.23925
G1 X77.801 Y62.091 E1.26300
G1 F1200.000 E0.26300
G92 E0
G1 X62.912 Y62.923 F6000.000
G1 E1.00000 F1200.000
G1 X62.074 Y63.021 E1.02686 F378.000
G1 X61.459 Y62.788 E1.04779
G1 X60.973 Y62.669 E1.06374
G1 X60.677 Y62.623 E1.07326
G1 X60.424 Y62.607 E1.08133
G1 X59.757 Y62.623 E1.10257
G1 X59.202 Y62.689 E1.12035
G1 X58.514 Y62.807 E1.14260
G1 X55.770 Y63.395 E1.23189
G1 X55.540 Y63.120 E1.24330
G1 X55.432 Y63.039 E1.24761
G1 X55.319 Y62.999 E1.25141
G1 X55.078 Y63.003 E1.25908
G1 F1200.000 E0.25908
G92 E0
G1 X61.911 Y63.581 F6000.000
G1 E1.00000 F1200.000
G1 X62.120 Y63.185 E1.01423 F378.000
G1 X56.897 Y62.678 F6000.000
G1 X55.654 Y63.464 E1.06105 F378.000
G1 X54.742 Y63.848 E1.09255
G1 X54.148 Y64.065 E1.11270
G1 F1200.000 E0.11270
G92 E0
G1 X76.420 Y65.880 F6000.000
G1 E1.00000 F1200.000
G1 X75.968 Y65.482 E1.01918 F378.000
G1 X76.217 Y64.869 E1.04022
G1 X76.405 Y64.774 E1.04695
G1 X76.565 Y64.647 E1.05345
G1 X77.174 Y63.860 E1.08512
G1 X76.831 Y64.463 F6000.000
G1 X74.930 Y66.671 E1.17788 F378.000
G1 X74.030 Y67.253 F6000.000
G1 X73.122 Y67.030 E1.20764 F378.000
G1 X72.355 Y66.875 E1.23255
G1 X71.436 Y66.750 E1.26208
G1 X70.551 Y66.695 E1.29032
G1 X69.510 Y66.702 E1.32344
G1 X68.984 Y66.735 E1.34022
G1 X68.454 Y66.795 E1.35720
G1 X67.830 Y66.887 E1.37728
G1 X67.130 Y67.030 E1.40002
G1 X66.282 Y67.261 E1.42799
G1 X65.287 Y66.993 E1.46077
G1 F1200.000 E0.46077
G92 E0
G1 X53.326 Y72.445 F6000.000
G1 E1.00000 F1200.000
G1 X52.946 Y71.601 E1.02943 F378.000
G1 X52.822 Y71.237 E1.04169
G1 X52.708 Y70.726 E1.05834
G1 X52.655 Y70.072 E1.07922
G1 X52.670 Y69.590 E1.09458
G1 X52.731 Y68.975 E1.11427
G1 X52.848 Y68.212 E1.13883
G1 X53.208 Y66.322 E1.20006
G1 X53.303 Y65.589 E1.22361
G1 X53.377 Y64.593 E1.25539
G1 F1200.000 E0.25539
G92 E0
G1 X76.391 Y67.622 F6000.000
G1 E1.00000 F1200.000
G1 X76.575 Y68.372 E1.02459 F378.000
G1 X77.161 Y68.723 E1.04635
G1 X77.711 Y69.089 E1.06737
G1 X78.256 Y69.494 E1.08899
G1 X78.807 Y69.954 E1.11184
G1 X79.310 Y70.413 E1.13352
G1 X79.704 Y70.814 E1.15139
G1 X80.131 Y71.293 E1.17181
G1 X80.642 Y71.929 E1.19780
G1 X81.181 Y72.698 E1.22768
G1 X81.666 Y73.509 E1.25775
G1 X81.427 Y74.292 E1.28382
G1 F1200.000 E0.28382
G92 E0
G1 X58.906 Y74.139 F6000.000
G1 E1.00000 F1200.000
G1 X58.533 Y73.617 E1.02040 F378.000
G1 X58.875 Y73.018 E1.04234
G1 X59.316 Y72.342 E1.06805
G1 X59.709 Y71.802 E1.08930
G1 X60.216 Y71.189 E1.11462
G1 X60.947 Y70.414 E1.14853
G1 X61.407 Y69.990 E1.16844
G1 X61.996 Y69.498 E1.19288
G1 X62.624 Y69.033 E1.21775
G1 X63.079 Y68.732 E1.23509
G1 X64.081 Y68.144 E1.27208
G1 F1200.000 E0.27208
G92 E0
G1 X84.363 Y73.365 F6000.000
G1 E1.00000 F1200.000
G1 X84.211 Y73.718 E1.01225 F378.000
G1 X84.333 Y73.799 E1.01689
G1 X84.454 Y73.939 E1.02280
G1 X84.462 Y74.111 E1.02825
G1 X84.425 Y74.280 E1.03379
G1 X83.526 Y74.870 E1.06801
G1 F1200.000 E0.06801
G92 E0
G1 X50.110 Y75.724 F6000.000
G1 E1.00000 F1200.000
G1 X50.089 Y74.871 E1.02719 F378.000
G1 X50.510 Y74.448 E1.04615
G1 X50.911 Y74.142 E1.06221
G1 X51.187 Y73.987 E1.07229
G1 X51.431 Y73.879 E1.08079
G1 X51.805 Y73.762 E1.09326
G1 X52.561 Y73.625 E1.11773
G1 F1200.000 E0.11773
G92 E0
G1 X87.288 Y74.116 F6000.000
G1 E1.00000 F1200.000
G1 X87.968 Y73.643 E1.02637 F378.000
G1 X88.443 Y73.767 E1.04201
G1 X88.867 Y73.935 E1.05653
G1 X89.267 Y74.172 E1.07131
G1 X89.599 Y74.439 E1.08486
G1 X89.975 Y74.819 E1.10189
G1 X90.446 Y75.405 E1.12583
G1 X90.944 Y76.155 E1.15449
G1 X91.968 Y77.855 E1.21767
G1 X92.281 Y78.315 E1.23536
G1 X92.822 Y79.046 E1.26431
G1 F1200.000 E0.26431
G92 E0
G1 X48.506 Y78.230 F6000.000
G1 E1.00000 F1200.000
G1 X47.564 Y77.619 E1.03572 F378.000
G1 F1200.000 E0.03572
G92 E0
G1 X47.232 Y79.760 F6000.000
G1 E1.00000 F1200.000
G1 X47.538 Y78.937 E1.02796 F378.000
G1 X47.728 Y78.336 E1.04803
G1 X48.199 Y77.658 E1.07429
G1 X48.957 Y76.462 E1.11936
G1 F1200.000 E0.11936
G92 E0
G1 X82.606 Y75.642 F6000.000
G1 E1.00000 F1200.000
G1 X82.896 Y76.639 E1.03306 F378.000
G1 X82.919 Y76.951 E1.04299
G1 X83.054 Y77.334 E1.05593
G1 X83.157 Y77.943 E1.07560
G1 X83.248 Y78.751 E1.10148
G1 X83.284 Y79.347 E1.12049
G1 X83.292 Y80.051 E1.14289
G1 X83.264 Y80.752 E1.16523
G1 X83.179 Y81.596 E1.19222
G1 X83.073 Y82.256 E1.21349
G1 X82.907 Y83.023 E1.23849
G1 X82.773 Y83.523 E1.25494
G1 X82.011 Y84.038 E1.28422
G1 F1200.000 E0.28422
G92 E0
G1 X57.624 Y84.027 F6000.000
G1 E1.00000 F1200.000
G1 X57.264 Y82.670 E1.04468 F378.000
G1 X57.098 Y81.741 E1.07473
G1 X57.016 Y81.022 E1.09775
G1 X56.966 Y80.220 E1.12333
G1 X56.963 Y79.614 E1.14263
G1 X56.988 Y79.063 E1.16017
G1 X57.042 Y78.423 E1.18062
G1 X57.116 Y77.840 E1.19934
G1 X57.236 Y77.182 E1.22061
G1 X57.355 Y76.664 E1.23755
G1 X58.072 Y76.200 E1.26472
G1 F1200.000 E0.26472
G92 E0
G1 X56.061 Y85.039 F6000.000
G1 E1.00000 F1200.000
G1 X56.053 Y85.019 E1.00068 F378.000
G1 X56.978 Y85.791 F6000.000
G1 X55.845 Y86.075 E1.03785 F378.000
G1 X55.740 Y85.940 E1.04329
G1 X55.707 Y85.659 E1.05232
G1 X55.804 Y85.115 E1.06990
G1 F1200.000 E0.06990
G92 E0
G1 X85.015 Y86.498 F6000.000
G1 E1.00000 F1200.000
G1 X83.201 Y84.851 E1.07798 F378.000
G1 F1200.000 E0.07798
G92 E0
G1 X52.803 Y85.678 F6000.000
G1 E1.00000 F1200.000
G1 X52.302 Y85.948 E1.01812 F378.000
G1 X51.966 Y86.103 E1.02990
G1 X51.945 Y86.099 E1.03059
G1 X51.427 Y85.909 E1.04816
G1 X50.902 Y85.628 E1.06711
G1 X50.505 Y85.343 E1.08266
G1 X50.104 Y84.975 E1.09998
G1 X49.747 Y84.562 E1.11734
G1 X49.386 Y84.027 E1.13790
G1 X49.061 Y83.481 E1.15812
G1 X48.345 Y82.173 E1.20560
G1 X47.901 Y81.449 E1.23260
G1 X47.850 Y81.238 E1.23954
G1 X47.646 Y80.721 E1.25722
G1 X47.251 Y79.913 E1.28585
G1 F1200.000 E0.28585
G92 E0
G1 X92.867 Y81.234 F6000.000
G1 E1.00000 F1200.000
G1 X92.622 Y81.437 E1.01012 F378.000
G1 X92.507 Y81.476 E1.01397
G1 X92.317 Y81.488 E1.02005
G1 X92.061 Y81.464 E1.02822
G1 X92.117 Y81.256 E1.03507
G1 X92.357 Y80.675 E1.05508
G1 X92.710 Y79.949 E1.08078
G1 F1200.000 E0.08078
G92 E0
G1 X87.618 Y86.948 F6000.000
G1 E1.00000 F1200.000
G1 X87.952 Y86.250 E1.02463 F378.000
G1 X88.240 Y86.140 E1.03446
G1 X88.562 Y85.987 E1.04580
G1 X89.104 Y85.645 E1.06620
G1 X89.632 Y85.177 E1.08867
G1 X90.073 Y84.672 E1.10998
G1 X90.412 Y84.197 E1.12859
G1 X90.706 Y83.735 E1.14600
G1 X91.778 Y81.890 E1.21391
G1 X92.685 Y80.525 E1.26609
G1 F1200.000 E0.26609
G92 E0
G1 X64.215 Y91.632 F6000.000
G1 E1.00000 F1200.000
G1 X63.100 Y90.987 E1.04099 F378.000
G1 X62.154 Y90.331 E1.07765
G1 X61.675 Y89.947 E1.09720
G1 X61.156 Y89.491 E1.11918
G1 X60.630 Y88.972 E1.14268
G1 X60.245 Y88.555 E1.16078
G1 X59.705 Y87.898 E1.18783
G1 X59.251 Y87.273 E1.21242
G1 X58.949 Y86.810 E1.23002
G1 X58.527 Y86.080 E1.25685
G1 X58.850 Y85.452 E1.27932
G1 F1200.000 E0.27932
G92 E0
G1 X75.952 Y92.236 F6000.000
G1 E1.00000 F1200.000
G1 X76.298 Y91.884 E1.01571 F378.000
G1 X76.356 Y91.761 E1.02004
G1 X76.425 Y91.418 E1.03118
G1 X77.196 Y90.962 E1.05971
G1 X78.095 Y90.337 E1.09453
G1 X78.999 Y89.584 E1.13200
G1 X79.630 Y88.969 E1.16004
G1 X80.036 Y88.527 E1.17912
G1 X80.658 Y87.758 E1.21063
G1 X81.056 Y87.200 E1.23243
G1 X81.526 Y86.445 E1.26073
G1 X82.288 Y86.253 E1.28577
G1 F1200.000 E0.28577
G92 E0
G1 X74.032 Y92.461 F6000.000
G1 E1.00000 F1200.000
G1 X72.985 Y92.705 E1.03420 F378.000
G1 X72.248 Y92.847 E1.05811
G1 X71.435 Y92.956 E1.08421
G1 X70.554 Y93.009 E1.11230
G1 X69.491 Y93.002 E1.14613
G1 X68.578 Y92.930 E1.17527
G1 X67.648 Y92.786 E1.20524
G1 X66.945 Y92.633 E1.22814
G1 X66.430 Y92.486 E1.24520
G1 X65.305 Y92.708 E1.28168
G1 F1200.000 E0.28168
G92 E0
G1 X76.463 Y94.489 F6000.000
G1 E1.00000 F1200.000
G1 X75.755 Y94.191 E1.02444 F378.000
G1 X75.645 Y93.911 E1.03403
G1 X75.682 Y93.647 E1.04251
G1 X75.723 Y92.538 E1.07784
G1 F1200.000 E0.07784
G92 E0
G1 X86.901 Y88.857 F6000.000
G1 E1.00000 F1200.000
G1 X87.337 Y88.737 E1.01438 F378.000
G1 X87.434 Y95.138 F6000.000
G1 X86.882 Y94.575 E1.03947 F378.000
G1 X86.931 Y94.076 E1.05542
G1 X87.049 Y93.314 E1.07995
G1 X87.083 Y93.130 E1.08592
G1 X87.187 Y92.801 E1.09691
G1 X87.199 Y92.497 E1.10658
G1 X87.384 Y91.401 E1.14198
G1 X87.473 Y90.648 E1.16609
G1 X87.526 Y89.763 E1.19432
G1 X87.510 Y89.057 E1.21680
G1 X87.455 Y88.707 E1.22807
G1 X87.288 Y88.305 E1.24193
G1 X87.493 Y87.486 E1.26881
G1 F1200.000 E0.26881
G92 E0
G1 X53.177 Y95.361 F6000.000
G1 E1.00000 F1200.000
G1 X52.988 Y94.014 E1.04330 F378.000
G1 X52.898 Y93.753 E1.05207
G1 X52.871 Y93.427 E1.06250
G1 X52.415 Y91.188 E1.13522
G1 X52.344 Y90.616 E1.15359
G1 X52.314 Y90.027 E1.17234
G1 X52.326 Y89.719 E1.18215
G1 X52.381 Y89.259 E1.19690
G1 X52.446 Y88.966 E1.20646
G1 X52.553 Y88.633 E1.21758
G1 X52.793 Y88.128 E1.23538
G1 X53.327 Y87.338 E1.26575
G1 F1200.000 E0.26575
G92 E0
G1 X85.903 Y96.191 F6000.000
G1 E1.00000 F1200.000
G1 X84.934 Y96.300 E1.03103 F378.000
G1 X84.435 Y96.378 E1.04711
G1 X83.394 Y96.591 E1.08092
G1 X83.152 Y96.609 E1.08866
G1 X82.814 Y96.728 E1.10005
G1 X81.962 Y96.909 E1.12777
G1 X81.233 Y97.044 E1.15139
G1 X80.364 Y97.145 E1.17923
G1 X79.800 Y97.152 E1.19718
G1 X79.283 Y97.095 E1.21375
G1 X78.819 Y96.979 E1.22897
G1 X78.278 Y96.770 E1.24742
G1 X77.178 Y96.862 E1.28258
G1 F1200.000 E0.28258
G92 E0
G1 X60.983 Y97.093 F6000.000
G1 E1.00000 F1200.000
G1 X60.828 Y96.611 E1.01609 F378.000
G1 X62.341 Y96.421 F6000.000
G1 X61.592 Y96.868 E1.04384 F378.000
G1 X61.101 Y97.120 E1.06142
G1 X60.825 Y97.203 E1.07060
G1 X60.459 Y97.243 E1.08230
G1 X59.115 Y97.260 E1.12510
G1 X58.327 Y97.198 E1.15026
G1 X57.674 Y97.046 E1.17159
G1 X56.231 Y96.594 E1.21974
G1 X55.351 Y96.403 E1.24837
G1 X54.760 Y96.328 E1.26735
G1 X54.244 Y96.863 E1.29102
G1 F1200.000 E0.29102
G92 E0
G1 X70.335 Y102.271 F6000.000
G1 E1.00000 F1200.000
G1 X71.194 Y101.787 E1.03138 F378.000
G1 X71.835 Y101.475 E1.05408
G1 X72.127 Y101.433 E1.06347
G1 X73.295 Y101.420 E1.10063
G1 X77.055 Y96.960 F6000.000
G1 X76.678 Y97.621 E1.12484 F378.000
G1 X76.235 Y98.243 E1.14915
G1 X75.981 Y98.702 E1.16584
G1 X75.831 Y98.910 E1.17401
G1 X75.534 Y99.240 E1.18816
G1 X75.176 Y99.567 E1.20357
G1 X74.626 Y99.966 E1.22522
G1 X72.175 Y101.432 E1.31612
G1 X72.142 Y101.715 E1.32518
G1 X72.069 Y101.911 E1.33185
G1 X72.001 Y102.003 E1.33550
G1 X71.521 Y102.510 E1.35772
G1 X69.417 Y102.623 F6000.000
G1 X68.766 Y102.054 E1.38524 F378.000
G1 X68.217 Y101.630 E1.40731
G1 X66.232 Y100.266 E1.48397
G1 X65.511 Y99.745 E1.51228
G1 X64.934 Y99.281 E1.53587
G1 X64.571 Y98.926 E1.55201
